src/images/icons/icon-like.svg

<svg width="18" height="17" viewBox="0 0 18 17" fill="none" xmlns="http://www.w3.org/2000/svg">
<path d="M9.9001 6.45693C10.0001 6.45693 10.1001 6.45693 10.1001 6.45693C12.2001 6.45693 14.3001 6.45693 16.3001 6.45693C17.0001 6.45693 17.5001 6.75693 17.8001 7.35693C18.0001 7.75693 18.0001 8.15693 17.8001 8.65693C17.2001 10.5569 16.5001 12.4569 15.9001 14.3569C15.8001 14.6569 15.7001 14.9569 15.6001 15.1569C15.4001 15.8569 14.8001 16.2569 14.1001 16.2569C12.0001 16.2569 9.8001 16.2569 7.7001 16.2569C7.4001 16.2569 7.2001 16.2569 6.9001 16.1569C5.9001 15.8569 5.1001 14.9569 5.1001 13.8569C5.1001 12.3569 5.1001 10.8569 5.1001 9.35693C5.1001 8.45693 5.1001 7.55693 5.1001 6.65693C5.1001 6.45693 5.1001 6.35693 5.2001 6.25693C6.9001 4.35693 8.5001 2.45693 10.1001 0.456934C10.1001 0.356934 10.2001 0.356934 10.3001 0.356934C11.4001 0.956934 12.0001 2.35693 11.4001 3.55693C11.0001 4.45693 10.5001 5.35693 10.1001 6.15693C10.0001 6.25693 10.0001 6.35693 9.9001 6.45693Z" fill="black"/>
<path d="M3.9 11.057C3.9 12.457 3.9 13.957 3.9 15.357C3.9 15.557 3.8 15.557 3.7 15.557C2.5 15.557 1.4 15.557 0.2 15.557C0 15.557 0 15.557 0 15.357C0 12.457 0 9.55703 0 6.65703C0 6.45703 0.1 6.45703 0.2 6.45703C1.4 6.45703 2.5 6.45703 3.7 6.45703C3.9 6.45703 3.9 6.55703 3.9 6.65703C3.9 8.15703 3.9 9.55703 3.9 11.057Z" fill="black"/>
</svg>

<svg xmlns="http://www.w3.org/2000/svg" width="18" height="17" fill="none"><path fill="#000" d="M9.9 6.46h6.4c.7 0 1.2.3 1.5.9.2.4.2.8 0 1.3-.6 1.9-1.3 3.8-1.9 5.7-.1.3-.2.6-.3.8-.2.7-.8 1.1-1.5 1.1H7.7c-.3 0-.5 0-.8-.1-1-.3-1.8-1.2-1.8-2.3v-7.2c0-.2 0-.3.1-.4 1.7-1.9 3.3-3.8 4.9-5.8 0-.1.1-.1.2-.1 1.1.6 1.7 2 1.1 3.2-.4.9-.9 1.8-1.3 2.6-.1.1-.1.2-.2.3ZM3.9 11.06v4.3c0 .2-.1.2-.2.2H.2c-.2 0-.2 0-.2-.2v-8.7c0-.2.1-.2.2-.2h3.5c.2 0 .2.1.2.2v4.4Z"/></svg>
